X: 6
T: Dances At Kinvara, The
Z: ceolachan
S: https://thesession.org/tunes/2380#setting15731
R: barndance
M: 4/4
L: 1/8
K: Gmaj
G2 B>^A (3Bcd B>G | c2 D2 F3 E | D>EF>G A>Bc>d | g>f (3agf g>d (3Bcd |G2 B>G D>G (3dcB | c2 D2 F2 F>E | D2 (3EFG A2 (3cBA |[1 B2 G2 G2 :|[2 B2 G2 G>d ||B2 dB c2 e>^c | d2 b2 (3bc'd' b>g | a>g (3gfe d>cB>A | G>Bg>f g>de>f |g2 dB (3ege (3cBA | d2 BG (3EcA (3GFE | D>EF>G A2 (3cBA |[1 B2 G2 G>d :|[2 B2 G2 G2 ||
